X:1
T:Stepping in the Light
T:William James Kirkpatrick
T:Stepping in the Light
T:Public Domain
T:Public Domain
C:William James Kirkpatrick
Z:Public Domain
%%score ( 1 2 ) ( 3 4 )
L:1/8
M:4/4
K:Db
V:1 treble 
V:2 treble 
V:3 bass 
V:4 bass 
V:1
 [FA]2 [FA]>[GB] [FA]2 [DF]>[EG] | [FA]2 [Fd]>[Ge] [Fd]2 [GB]2 | [FA]2 [FA]>[GB] [FA]2 [EG][DF] | %3
w: 1.~Try- ing to walk in the|steps of the Sav- ior,|Try- ing to fol- low our|
w: 2.~Press- ing more close- ly to|Him who is lead- ing,|When we are tempt- ed to|
w: 3.~Walk- ing in foot- steps of|gen- tle for- bear- ance,|Foot- steps of faith- ful- ness,|
w: 4.~Try- ing to walk in the|steps of the Sav- ior,|Up- ward, still up- ward, we|
 [DF]2 [A,E]D [CE]4 | [DF]2 [DF]>[EG] [FA]2 [FA][FA] | [GB]2 [Gd]>[Ge] [Gd]2 [GB]2 | %6
w: Sav- ior and king;|ing our lives by His bless-|èd ex- am- ple, Hap-|
w: turn from the way;|ting the arm that is strong|to de- fend us, Hap-|
w: mer- cy, and love,|ing to Him for the grace|free- ly prom- ised, Hap-|
w: fol- low our guide;|we shall see Him, “the King|in His beau- ty,” Hap-|
 [FA] [FA]2 [FA] [GB] [Ge]2 [Gd] | [Gc]2 [GB][Gc] [Fd]2 ||"^Refrain" ([Fd]>[Ac]) | %9
w: py, how hap- py, the songs|that we bring. *||
w: py, how hap- py, our prais-|es each day. *||
w: py, how hap- py, our jour-|ney a- bove. *||
w: py, how hap- py, our place|at His side. *||
 [GB][GB] [GB]>[GB] [GB]2 [GB]>[GB] | [FA]2 [FA]>[FA] [FA]2 [DF]2 | [EG][EG] [EG]>[DF] [CE]4 | %12
w: |||
w: |||
w: |||
w: |||
 [DF][DF] [DF]>[EG] [FA]2 [FA]2 | [GB][GB] [GB]>[GB] [Gd]2 [Gd]>[GB] | %14
w: ||
w: ||
w: ||
w: ||
 [FA]2 [FA]>[FA] [FA]2 [DF]2 | [Gc]2 [Gc]2 [GB]2 [Gc]2 | [Fd]6 z2 |] %17
w: |||
w: |||
w: |||
w: |||
V:2
 x8 | x8 | x8 | x3 D x4 | x8 | x8 | x8 | x6 || x2 | x8 | x8 | x8 | x8 | x8 | x8 | x8 | x8 |] %17
w: |||Shap-||||||||||||||
w: |||Trus-||||||||||||||
w: |||Look-||||||||||||||
w: |||When||||||||||||||
V:3
 [D,D]2 [D,D]>[D,D] [D,D]2 [D,A,]>[D,A,] | [D,D]2 [D,A,]>[D,A,] [D,A,]2 [D,D]2 | %2
w: ~ ~ ~ ~ ~ ~|~ ~ ~ ~ ~|
 [D,D]2 [D,D]>[D,D] [D,D]2 [D,A,][D,A,] | [D,A,]2 [C,A,][B,,=G,] [A,,A,]4 | %4
w: ~ ~ ~ ~ ~ ~|~ ~ ~ ~|
 [D,A,]2 [D,A,]>[D,A,] [D,D]2 [D,D][D,D] | [G,D]2 [G,B,]>[G,B,] [G,B,]2 [G,D]2 | %6
w: ~ ~ ~ ~ ~ ~|~ ~ ~ ~ ~|
 [D,D] [D,D]2 [D,D] [G,D] [G,B,]2 [G,B,] | A,2 A,A, [D,A,]2 || [D,D]2 | %9
w: ~ ~ ~ ~ ~ ~|~ ~ ~ ~|How|
 [G,D][G,D] [G,D]>[G,D] [G,D]2 [G,D]>[G,D] | [D,D]2 [D,D]>[D,D] [D,D]2 [D,A,]2 | %11
w: beau- ti- ful to walk in the|steps of the Sav- ior,|
 [A,,A,][A,,A,] [A,,A,]>[A,,A,] [A,,A,]4 | [D,A,][D,A,] [D,A,]>[D,A,] [D,D]2 [D,D]2 | %13
w: Step- ping in the light,|step- ping in the light, How|
 [G,D][G,D] [G,D]>[G,D] [G,B,]2 [G,B,]>[G,D] | [D,D]2 [D,D]>[D,D] [D,D]2 [D,D]2 | %15
w: beau- ti- ful to walk in the|steps of the Sav- ior,|
 [A,E]2 [A,E]2 [A,E]2 A,2 | [D,A,]6 z2 |] %17
w: Led in paths of||
V:4
 x8 | x8 | x8 | x8 | x8 | x8 | x8 | x6 || x2 | x8 | x8 | x8 | x8 | x8 | x8 | x6 A,2 | x8 |] %17
w: |||||||||||||||light.||

